static/img/icons-depth-do-2.svg

<svg width="240" height="240" viewBox="0 0 240 240" fill="none" xmlns="http://www.w3.org/2000/svg"><path fill="#fff" d="M0 0h240v240H0z"/><path stroke="#DFDFDF" d="M39.5 39.5h160v160h-160z"/><path d="M49.5 39.5v160m10-160v160m10-160v160m10-160v160m10-160v160m10-160v160m10-160v160m10-160v160m10-160v160m10-160v160m10-160v160m10-160v160m10-160v160m10-160v160m10-160v160m10-150h-160m160 10h-160m160 10h-160m160 10h-160m160 10h-160m160 10h-160m160 10h-160m160 10h-160m160 10h-160m160 10h-160m160 10h-160m160 10h-160m160 10h-160m160 10h-160m160 10h-160" stroke="#DFDFDF" stroke-linecap="square"/><path fill-rule="evenodd" clip-rule="evenodd" d="M211 39c5.523 0 10-4.477 10-10s-4.477-10-10-10-10 4.477-10 10 4.477 10 10 10Z" fill="#17AA55"/><path d="m207 29.069 2.981 2.98 6.05-6.049" stroke="#fff" stroke-width="2" stroke-linecap="round"/><path d="m167.411 85.005.76-.434-.76-.434-45.165-25.803a5.535 5.535 0 0 0-5.492 0L71.589 84.136l-.76.434.76.434 47.663 27.231.248.141.248-.141 47.663-27.23ZM64.355 97.117l-.748-.428v52.402a5.534 5.534 0 0 0 2.79 4.805l45.301 25.882.748.428v-55.614l-.252-.144-47.839-27.331Zm62.199 82.227v.862l.748-.428 45.302-25.882a5.535 5.535 0 0 0 2.789-4.805V96.689l-.748.428-47.839 27.331-.252.144v54.752Zm-16.8-133.256a19.648 19.648 0 0 1 19.492 0l50.357 28.77a19.639 19.639 0 0 1 9.897 17.051v57.182a19.638 19.638 0 0 1-9.897 17.051l-50.357 28.77a19.643 19.643 0 0 1-19.492 0l-50.357-28.77a19.638 19.638 0 0 1-9.897-17.051V91.909a19.639 19.639 0 0 1 9.897-17.051l50.357-28.77Z" fill="#6E49CB" fill-opacity=".3" stroke="#6E49CB"/></svg>

<svg width="240" height="240" xmlns="http://www.w3.org/2000/svg"><g fill="none" fill-rule="evenodd"><path fill="#FFF" d="M0 0h240v240H0z"/><g stroke="#DFDFDF"><path d="M39.5 39.5h160v160h-160z"/><g stroke-linecap="square"><path d="M49.5 39.5v160M59.5 39.5v160M69.5 39.5v160M79.5 39.5v160M89.5 39.5v160M99.5 39.5v160M109.5 39.5v160M119.5 39.5v160M129.5 39.5v160M139.5 39.5v160M149.5 39.5v160M159.5 39.5v160M169.5 39.5v160M179.5 39.5v160M189.5 39.5v160M199.5 49.5h-160M199.5 59.5h-160M199.5 69.5h-160M199.5 79.5h-160M199.5 89.5h-160M199.5 99.5h-160M199.5 109.5h-160M199.5 119.5h-160M199.5 129.5h-160M199.5 139.5h-160M199.5 149.5h-160M199.5 159.5h-160M199.5 169.5h-160M199.5 179.5h-160M199.5 189.5h-160"/></g></g><path d="M119.5 62.671l50 28.868v.582l-50 28.75-50.501-29.043L119.5 62.671zm0 80.118l50-28.75v35.235l-50 28.867-50-28.867v-35.235l50 28.75zm9.75-97.582a19.5 19.5 0 0 0-19.5 0l-50.5 29.156A19.5 19.5 0 0 0 49.5 91.25v58.313a19.5 19.5 0 0 0 9.75 16.887l50.5 29.156a19.5 19.5 0 0 0 19.5 0l50.5-29.156a19.5 19.5 0 0 0 9.75-16.887V91.25a19.5 19.5 0 0 0-9.75-16.887l-50.5-29.156z" stroke="#6E49CB" fill-opacity=".3" fill="#6E49CB"/><g transform="translate(201 19)"><circle fill="#17AA55" cx="10" cy="10" r="10"/><path stroke="#FFF" stroke-width="2" stroke-linecap="round" d="M6 10.069l2.98 2.98L15.03 7"/></g></g></svg>
